packages/astro-components-stencil/src/icons/replay.svg

<svg width="24" height="24" viewBox="0 0 24 24" fill="none" xmlns="http://www.w3.org/2000/svg">
<path d="M12 6.00003V3.21003C12 2.76003 11.46 2.54003 11.15 2.86003L7.35003 6.65003C7.15003 6.85003 7.15003 7.16003 7.35003 7.36003L11.14 11.15C11.46 11.46 12 11.24 12 10.79V8.00003C15.73 8.00003 18.68 11.42 17.86 15.29C17.39 17.56 15.55 19.39 13.29 19.86C9.72003 20.61 6.54003 18.16 6.06003 14.85C5.99003 14.37 5.57003 14 5.08003 14C4.48003 14 4.00003 14.53 4.08003 15.13C4.70003 19.52 8.88003 22.77 13.61 21.85C16.73 21.24 19.24 18.73 19.85 15.61C20.84 10.48 16.94 6.00003 12 6.00003Z" fill="black"/>
</svg>

<svg xmlns="http://www.w3.org/2000/svg" viewBox="0 0 24 24"><g xmlns="http://www.w3.org/2000/svg" id="replay" fill-rule="nonzero">
            <path d="M12 6V3.21c0-.45-.54-.67-.85-.35l-3.8 3.79c-.2.2-.2.51 0 .71l3.79 3.79c.32.31.86.09.86-.36V8c3.73 0 6.68 3.42 5.86 7.29-.47 2.27-2.31 4.1-4.57 4.57-3.57.75-6.75-1.7-7.23-5.01a1 1 0 00-.98-.85c-.6 0-1.08.53-1 1.13.62 4.39 4.8 7.64 9.53 6.72 3.12-.61 5.63-3.12 6.24-6.24C20.84 10.48 16.94 6 12 6z"/>
        </g></svg>
